X:2131
T:Galway Bay
O:england
M:C|
L:1/8
R:hornpipe
K:ADor
AB|:cBcd ed (3efg|a2ea aec'a|gec'a gede|(3cBA (3BAG AGEG|
~A3B cecA|GDGA BAGE|ABcA ecAB|1c2A2 A3B:|2c2A2 A3a|
:ageg abc'a|age^d ecAB|c2cd eafd|gdec BAGE|
cGec BGdG|cGec BG=F2|(3efg ab c'abg|1e2a2 a3a:|2e2a2 a2AB||


